X: 2
T: Minor
Z: ceolachan
S: https://thesession.org/tunes/5231#setting17482
R: mazurka
M: 3/4
L: 1/8
K: Dmin
A2 A>B c>d | A2 A2 B>A | G2 A>G F>E | F2 D>D E>D | A2 AB cd | A2 A2 BA | G2 A>G F>E | D3 :| B2 BA Bc | d2 d2 cB | A2 AG AB | A2 AD dc |B3 A Bc | d2 d2 cB | A2 AF EF | D3 :||1 E3 :|2 D3 ||
